Yosa-Max-Dark/actions/22x22/view-calendar-special-occasion.svg

<?xml version="1.0" encoding="UTF-8"?>
<svg id="svg4" version="1.1" viewBox="0 0 22 22" xmlns="http://www.w3.org/2000/svg">
 <defs id="defs8">
  <style id="current-color-scheme" type="text/css">.ColorScheme-Text {
        color:#dfdfdf;
      }</style>
  <style id="current-color-scheme-5" type="text/css">.ColorScheme-Text {
        color:#dfdfdf;
      }</style>
 </defs>
 <path id="rect817" d="m2.9999996 3.0000001v16h16v-16zm1 1h14v14h-14z" style="fill:#dfdfdf;paint-order:stroke fill markers"/>
 <rect id="rect824" x="2.9999998" y="6" width="16" height="2" style="fill:#dfdfdf;paint-order:stroke fill markers"/>
 <path id="rect834" d="m1.9999999 2.0000001v18h18v-18zm2 2h14v14h-14z" style="fill:#dfdfdf;paint-order:stroke fill markers"/>
 <path id="path855" transform="matrix(.44402318 -.11897565 .11897565 .44402318 17.73172 6.3038285)" d="m-13.419293 14.080708-3.508657-1.324525-2.92763 2.343933 0.175464-3.746232-3.133901-2.0600266 3.6171-0.9907736 0.990773-3.6170995 2.060027 3.1339003 3.746232-0.1754637-2.343933 2.9276301z" style="fill:none;paint-order:stroke fill markers;stroke-width:2.1753952;stroke:#dfdfdf"/>
</svg>

<?xml version="1.0" encoding="UTF-8" standalone="no"?>
<svg
   xmlns:dc="http://purl.org/dc/elements/1.1/"
   xmlns:cc="http://creativecommons.org/ns#"
   xmlns:rdf="http://www.w3.org/1999/02/22-rdf-syntax-ns#"
   xmlns:svg="http://www.w3.org/2000/svg"
   xmlns="http://www.w3.org/2000/svg"
   xmlns:sodipodi="http://sodipodi.sourceforge.net/DTD/sodipodi-0.dtd"
   xmlns:inkscape="http://www.inkscape.org/namespaces/inkscape"
   viewBox="0 0 22 22"
   version="1.1"
   id="svg4"
   sodipodi:docname="view-calendar-special-occasion.svg"
   inkscape:version="0.92.2 2405546, 2018-03-11">
  <metadata
     id="metadata10">
    <rdf:RDF>
      <cc:Work
         rdf:about="">
        <dc:format>image/svg+xml</dc:format>
        <dc:type
           rdf:resource="http://purl.org/dc/dcmitype/StillImage" />
        <dc:title></dc:title>
      </cc:Work>
    </rdf:RDF>
  </metadata>
  <defs
     id="defs8">
    <style
       id="current-color-scheme"
       type="text/css">
      .ColorScheme-Text {
        color:#dfdfdf;
      }
      </style>
    <style
       type="text/css"
       id="current-color-scheme-5">
      .ColorScheme-Text {
        color:#dfdfdf;
      }
      </style>
  </defs>
  <sodipodi:namedview
     pagecolor="#ffffff"
     bordercolor="#666666"
     borderopacity="1"
     objecttolerance="10"
     gridtolerance="10"
     guidetolerance="10"
     inkscape:pageopacity="0"
     inkscape:pageshadow="2"
     inkscape:window-width="1366"
     inkscape:window-height="701"
     id="namedview6"
     showgrid="false"
     inkscape:zoom="22.227273"
     inkscape:cx="5.4061642"
     inkscape:cy="11"
     inkscape:window-x="0"
     inkscape:window-y="0"
     inkscape:window-maximized="1"
     inkscape:current-layer="svg4"
     inkscape:snap-bbox="true"
     inkscape:bbox-nodes="true"
     inkscape:snap-bbox-edge-midpoints="true"
     inkscape:snap-bbox-midpoints="true"
     inkscape:bbox-paths="true"
     inkscape:object-paths="true"
     inkscape:snap-intersection-paths="true" />
  <path
     inkscape:connector-curvature="0"
     style="opacity:1;vector-effect:none;fill:#dfdfdf;fill-opacity:1;stroke:none;stroke-width:2.99999976;stroke-linecap:butt;stroke-linejoin:miter;stroke-miterlimit:4;stroke-dasharray:none;stroke-dashoffset:0;stroke-opacity:0.8539823;paint-order:stroke fill markers"
     d="M 2.9999996,3.0000001 V 19 H 19 V 3.0000001 Z m 1,1 H 18 V 18 H 3.9999996 Z"
     id="rect817" />
  <rect
     style="opacity:1;vector-effect:none;fill:#dfdfdf;fill-opacity:1;stroke:none;stroke-width:3.00000048;stroke-linecap:butt;stroke-linejoin:miter;stroke-miterlimit:4;stroke-dasharray:none;stroke-dashoffset:0;stroke-opacity:0.8539823;paint-order:stroke fill markers"
     id="rect824"
     width="16"
     height="2"
     x="2.9999998"
     y="6" />
  <path
     style="opacity:1;vector-effect:none;fill:#dfdfdf;fill-opacity:1;stroke:none;stroke-width:2;stroke-linecap:butt;stroke-linejoin:miter;stroke-miterlimit:4;stroke-dasharray:none;stroke-dashoffset:0;stroke-opacity:1;paint-order:stroke fill markers"
     d="M 1.9999999,2.0000001 V 20 H 20 V 2.0000001 Z m 2,2 H 18 V 18 H 3.9999999 Z"
     id="rect834"
     inkscape:connector-curvature="0" />
  <path
     sodipodi:type="star"
     style="opacity:1;vector-effect:none;fill:none;fill-opacity:1;stroke:#dfdfdf;stroke-width:2.17539525;stroke-linecap:butt;stroke-linejoin:miter;stroke-miterlimit:4;stroke-dasharray:none;stroke-dashoffset:0;stroke-opacity:1;paint-order:stroke fill markers"
     id="path855"
     sodipodi:sides="5"
     sodipodi:cx="-17.338984"
     sodipodi:cy="10.161017"
     sodipodi:r1="5.5432801"
     sodipodi:r2="2.6275148"
     sodipodi:arg1="0.78539816"
     sodipodi:arg2="1.4137167"
     inkscape:flatsided="false"
     inkscape:rounded="0"
     inkscape:randomized="0"
     d="m -13.419293,14.080708 -3.508657,-1.324525 -2.92763,2.343933 0.175464,-3.746232 -3.133901,-2.0600266 3.6171,-0.9907736 0.990773,-3.6170995 2.060027,3.1339003 3.746232,-0.1754637 -2.343933,2.9276301 z"
     inkscape:transform-center-x="0.16371615"
     inkscape:transform-center-y="0.08230868"
     transform="matrix(0.44402318,-0.11897565,0.11897565,0.44402318,17.73172,6.3038285)" />
</svg>
